X: 33936
T: Red-Haired Lass, The
R: reel
M: 4/4
K: Amajor
|:A2A/A/A ABcB|ABcA B~F3|EAAG ABce|1 faec dBcB:|2 afec d2cd||
e/e/eae feaf|eaec d2cd|e/e/eae fefa|afec d2cd|
e/e/eae feaf|eaec d2cB|BccB cefa|afec dBcB||

